vuecli/src/doodledesign/glyphs/duplicate.svg

<svg viewBox="0 0 1024 1024" xmlns="http://www.w3.org/2000/svg" fill-rule="evenodd" clip-rule="evenodd" stroke-linejoin="round" stroke-miterlimit="2"><path d="M777.475 74c17.334-.666 32 5.334 44 18 12 12.667 18 27.667 18 45v83.05h61c17.334-.666 32 5.334 44 18 12 12.667 18 27.667 18 45v610c.667 18-5.333 33-18 45s-27.333 18-44 18h-610c-16.667.667-31.333-5.333-44-18-12.667-12.667-19-27.667-19-45V830h-90c-16.667.667-31.333-5.333-44-18-12.667-12.667-19-27.667-19-45V137c.667-18 7-33 19-45s26.666-18 44-18h640zM760 300H310v580h570V300H760zm0-79.95V150H150v610h77.475V283.05c.667-18 7-33 19-45s26.666-18 44-18H760z" fill-rule="nonzero"/></svg>

<?xml version="1.0" encoding="UTF-8" standalone="no"?>
<!DOCTYPE svg PUBLIC "-//W3C//DTD SVG 1.1//EN" "http://www.w3.org/Graphics/SVG/1.1/DTD/svg11.dtd">
<svg width="100%" height="100%" viewBox="0 0 1024 1024" version="1.1" xmlns="http://www.w3.org/2000/svg" xmlns:xlink="http://www.w3.org/1999/xlink" xml:space="preserve" xmlns:serif="http://www.serif.com/" style="fill-rule:evenodd;clip-rule:evenodd;stroke-linejoin:round;stroke-miterlimit:2;">
    <path d="M777.475,74C794.809,73.334 809.475,79.334 821.475,92C833.475,104.667 839.475,119.667 839.475,137L839.475,220.05L900.475,220.05C917.809,219.384 932.475,225.384 944.475,238.05C956.475,250.717 962.475,265.717 962.475,283.05L962.475,893.05C963.142,911.05 957.142,926.05 944.475,938.05C931.808,950.05 917.142,956.05 900.475,956.05L290.475,956.05C273.808,956.717 259.142,950.717 246.475,938.05C233.808,925.383 227.475,910.383 227.475,893.05L227.475,830L137.475,830C120.808,830.667 106.142,824.667 93.475,812C80.808,799.333 74.475,784.333 74.475,767L74.475,137C75.142,119 81.475,104 93.475,92C105.475,80 120.141,74 137.475,74L777.475,74ZM760,300L310,300L310,880L880,880L880,300L760,300ZM760,220.05L760,150L150,150L150,760L227.475,760L227.475,283.05C228.142,265.05 234.475,250.05 246.475,238.05C258.475,226.05 273.141,220.05 290.475,220.05L760,220.05Z" style="fill-rule:nonzero;"/>
</svg>
